packages/foundations/assets/icons/functional/images/file/folder_24_filled.svg

<svg xmlns="http://www.w3.org/2000/svg" width="20" height="20" fill="none"><path fill="#1A1C1F" fill-rule="evenodd" d="M4.567 4.052a1.9 1.9 0 0 0-.968.545 1.85 1.85 0 0 0-.533.923C3.002 5.77 3 5.904 3 10s.002 4.23.066 4.48c.096.377.244.632.533.921s.544.437.921.533c.251.064.388.066 5.48.066s5.229-.002 5.48-.066c.377-.096.632-.244.921-.533s.437-.544.533-.921c.064-.248.066-.381.066-3.73s-.002-3.482-.066-3.73a1.83 1.83 0 0 0-.533-.921 1.8 1.8 0 0 0-.501-.376c-.45-.224-.42-.222-3.35-.224l-2.633-.002-.546-.573c-.639-.672-.796-.807-1.019-.874-.233-.071-3.456-.069-3.785.002"/></svg>

<svg width="20" height="20" viewBox="0 0 20 20" fill="none" xmlns="http://www.w3.org/2000/svg"><path d="M4.567 4.052 C 4.203 4.130,3.883 4.310,3.599 4.597 C 3.310 4.888,3.162 5.145,3.066 5.520 C 3.002 5.770,3.000 5.904,3.000 10.000 C 3.000 14.096,3.002 14.230,3.066 14.480 C 3.162 14.857,3.310 15.112,3.599 15.401 C 3.888 15.690,4.143 15.838,4.520 15.934 C 4.771 15.998,4.908 16.000,10.000 16.000 C 15.092 16.000,15.229 15.998,15.480 15.934 C 15.857 15.838,16.112 15.690,16.401 15.401 C 16.690 15.112,16.838 14.857,16.934 14.480 C 16.998 14.232,17.000 14.099,17.000 10.750 C 17.000 7.401,16.998 7.268,16.934 7.020 C 16.838 6.643,16.690 6.388,16.401 6.099 C 16.221 5.919,16.079 5.812,15.900 5.723 C 15.450 5.499,15.480 5.501,12.550 5.499 L 9.917 5.497 9.371 4.924 C 8.732 4.252,8.575 4.117,8.352 4.050 C 8.119 3.979,4.896 3.981,4.567 4.052 " fill="#1A1C1F" stroke="none" fill-rule="evenodd"></path></svg>
